X:2164
T:Brighton Camp
M:4/4
L:1/8
R:Rant
K:G
|: gf | e2 dc B2 A2 | B2 G2 E2 D2 | G2 G2 GABc | d4 B2 gf | e2 dc B2A2 |
 B2G2 E2G2 | F2A2 D2 EF | G2-G :|
|: dc | B2d2 e2f2 | g2 d2 B2 G2 | B2d2 e2f2 | g4 f2 gf | e2 dc B2A2 | B2
G2 E2G2 | F2A2 D2 EF | G2-G :|


